X: 2085
T: Bitten Twig, The
R: jig
C: Rick Gagne
N: 2001 on whistle
M: 6/8
Q: 1/4=165
K: Edor
D | "Em"EDE BEd | BEd "Bm"BAF | "D"ABA DED | BAB "Bm"dBA | 
"Em"BAB EFE | BAB "Bm"dBA | "D"ABA DFA |1 BAF "Em"E2 :|2 BAF "Em"e2 ||
B | "Em"e2f gfe | "D"fef dBA | ABA DFA | "Bm"BAB dBA | 
"Em"Bef gfe | "D"fef dBA | ABA DFA |1 "Bm"BAF "Em"e2 :|2 "Bm"BAF "Em"E2 ||
